src/lib/packages/icons/src/assets/filled/soundcloud.svg

<svg width="24" height="24" viewBox="0 0 24 24" fill="none" xmlns="http://www.w3.org/2000/svg">
<path d="M22 14.46C22 15.86 20.91 17 19.57 17H12V8.72C12.67 8.27 13.45 8 14.3 8C16.56 8 18.39 9.83 18.56 12.16C20.19 11.38 21.99 12.64 21.99 14.46H22ZM7.82999 9.94C7.52999 10.05 7.25 10.21 7 10.4V17H7.82999V9.94ZM10.33 17H11.16V9.45001C10.97 9.67001 10.79 9.89999 10.64 10.15L10.32 10V17H10.33ZM8.66 17H9.48999V9.76001C9.06999 9.70001 8.97 9.72001 8.66 9.76001V17.01V17ZM5.32999 17H6.16V11.26C5.9 11.63 5.69999 12.05 5.57999 12.52L5.32001 12.37V17.01L5.32999 17ZM2.82999 12.7C2.31999 13.15 2 13.81 2 14.56C2 15.31 2.32999 15.97 2.82999 16.42V12.71V12.7ZM4.5 12.13C4.25 12.11 4.06001 12.11 3.67001 12.23V16.88C4.04001 17 4.2 16.99 4.5 16.99V12.12V12.13Z" fill="currentColor"/>
</svg>

<svg xmlns="http://www.w3.org/2000/svg" width="24" height="24" fill="none"><path fill="currentColor" d="M22 14.46c0 1.4-1.09 2.54-2.43 2.54H12V8.72c.67-.45 1.45-.72 2.3-.72 2.26 0 4.09 1.83 4.26 4.16 1.63-.78 3.43.48 3.43 2.3H22ZM7.83 9.94c-.3.11-.58.27-.83.46V17h.83V9.94Zm2.5 7.06h.83V9.45c-.19.22-.37.45-.52.7l-.32-.15v7h.01Zm-1.67 0h.83V9.76c-.42-.06-.52-.04-.83 0v7.25V17Zm-3.33 0h.83v-5.74c-.26.37-.46.79-.58 1.26l-.26-.15v4.64l.01-.01Zm-2.5-4.3A2.46 2.46 0 0 0 2 14.56c0 .75.33 1.41.83 1.86V12.7Zm1.67-.57c-.25-.02-.44-.02-.83.1v4.65c.37.12.53.11.83.11v-4.87.01Z"/></svg>
